packages/icon/src/svg/Social/MdGithub.svg

<svg height="40" viewBox="0 0 40 40" width="40" xmlns="http://www.w3.org/2000/svg"><path d="m31 20c0-6.0741153-4.9258847-11-11-11-6.0748854 0-11 4.9254548-11 11 0 6.0753153 4.9246847 11 11 11 6.0745452 0 11-4.9251146 11-11zm2 0c0 7.1794858-5.8209163 13-13 13-7.1798847 0-13-5.8201153-13-13 0-7.1790837 5.8205142-13 13-13 7.1786847 0 13 5.8213153 13 13zm-12.8967742-8c4.4741936 0 7.8967742 3.4838174 7.8967742 8.0726633 0 3.6690916-2.2516129 6.8088283-5.4677419 7.9138568-.4129033.0760948-.5580646-.1852742-.5580646-.4003247l.0096775-2.0313997.1806572.0315735c.5222509.0773771 2.0265038.1985285 2.4963487-.8711228l.0977296-.2484869c.101815-.2332073.3791885-.8037549.750702-1.0501285l.1035947-.0586584s.6629971-.4661916.0607989-.5068252l-.1124118-.002679s-.711508.0586137-1.1636593.7219829l-.081502.131602c-.7064516 1.2770689-1.8903225.9098289-2.3516129.69147-.0741935-.529355-.2838709-.896595-.516129-1.114954l.5830764-.0723344c1.59226-.2247994 3.0395042-.7448573 3.0395042-3.5835233 0-.9098289-.2451612-1.3663975-.7612903-1.948688l.0360282-.1031141c.1024471-.3241363.2700439-1.1332801-.1198991-2.1433361-.6741936-.2150504-2.2258065.8932865-2.2258065.8932865-.6451613-.1852742-1.3387097-.2812198-2.0258065-.2812198-.6870967 0-1.3806451.0959456-2.0258064.2812198l-.231094-.1560992c-.458029-.2978586-1.4810412-.903556-1.9947125-.7371873-.4419354 1.1480386-.1677419 2.0313997-.0838709 2.2464502-.5161291.5855989-.8322581 1.0421676-.8322581 1.948688 0 3.1926721 1.9 3.4474242 3.7032258 3.6558577-.2967742.2613691-.5483871.7576393-.5483871 1.5351295l.0096774 2.7658797c0 .2150504-.1483871.4764195-.5580645.4003247-3.2258064-1.0984116-5.4129032-4.2381483-5.4129032-7.9072399 0-4.5888459 3.6290323-8.0726633 8.1032258-8.0726633z" fill="#2F313A"/></svg>

<?xml version="1.0" encoding="UTF-8"?>
<svg width="40px" height="40px" viewBox="0 0 40 40" version="1.1" xmlns="http://www.w3.org/2000/svg" xmlns:xlink="http://www.w3.org/1999/xlink">
    <title>Vector Files/40x40/Flattened/Social/Github</title>
    <g id="40x40/Flattened/Social/Github" stroke="none" stroke-width="1" fill="none" fill-rule="evenodd">
        <path d="M31,20 C31,13.9258847 26.0741153,9 20,9 C13.9251146,9 9,13.9254548 9,20 C9,26.0753153 13.9246847,31 20,31 C26.0745452,31 31,26.0748854 31,20 Z M33,20 C33,27.1794858 27.1790837,33 20,33 C12.8201153,33 7,27.1798847 7,20 C7,12.8209163 12.8205142,7 20,7 C27.1786847,7 33,12.8213153 33,20 Z M20.1032258,12 C24.5774194,12 28,15.4838174 28,20.0726633 C28,23.7417549 25.7483871,26.8814916 22.5322581,27.9865201 C22.1193548,28.0626149 21.9741935,27.8012459 21.9741935,27.5861954 L21.983871,25.5547957 L21.983871,25.5547957 L22.1645282,25.5863692 C22.6867791,25.6637463 24.191032,25.7848977 24.6608769,24.7152464 L24.7586065,24.4667595 C24.8604215,24.2335522 25.137795,23.6630046 25.5093085,23.416631 L25.6129032,23.3579726 C25.6129032,23.3579726 26.2759003,22.891781 25.6737021,22.8511474 L25.5612903,22.8484684 C25.5612903,22.8484684 24.8497823,22.9070821 24.397631,23.5704513 L24.316129,23.7020533 C23.6096774,24.9791222 22.4258065,24.6118822 21.9645161,24.3935233 C21.8903226,23.8641683 21.6806452,23.4969283 21.4483871,23.2785693 L22.0314635,23.2062349 C23.6237235,22.9814355 25.0709677,22.4613776 25.0709677,19.6227116 C25.0709677,18.7128827 24.8258065,18.2563141 24.3096774,17.6740236 L24.3457056,17.5709095 C24.4481527,17.2467732 24.6157495,16.4376294 24.2258065,15.4275734 C23.5516129,15.212523 22,16.3208599 22,16.3208599 C21.3548387,16.1355857 20.6612903,16.0396401 19.9741935,16.0396401 C19.2870968,16.0396401 18.5935484,16.1355857 17.9483871,16.3208599 L17.7172931,16.1647607 C17.2592641,15.8669021 16.2362519,15.2612047 15.7225806,15.4275734 C15.2806452,16.575612 15.5548387,17.4589731 15.6387097,17.6740236 C15.1225806,18.2596225 14.8064516,18.7161912 14.8064516,19.6227116 C14.8064516,22.8153837 16.7064516,23.0701358 18.5096774,23.2785693 C18.2129032,23.5399384 17.9612903,24.0362086 17.9612903,24.8136988 L17.9709677,27.5795785 L17.9709677,27.5795785 C17.9709677,27.7946289 17.8225806,28.055998 17.4129032,27.9799032 C14.1870968,26.8814916 12,23.7417549 12,20.0726633 C12,15.4838174 15.6290323,12 20.1032258,12 Z" id="Github" fill="#2F313A" fill-rule="nonzero"></path>
    </g>
</svg>
